X: 12080
T: Estuary Of The Shannon, The
R: reel
M: 4/4
K: Edorian
|:ED|B,EED E2FA|(3BBB AB defa|e~B3 AFDF|E2ED EDB,A,|
B,EED E2FA|(3BBB AB defa|e~B3 AFDF|E2ED E2:|
|:FA|~B3d egfe|dBAF DEFA|BdAF DEED|~E3F EDB,G,|
A,G,B,G, A,2FA|~B3d eB (3BBB|AFDF E2:|

